X:0860
M:3/4
L:1/8
Q:1/4=72 "Slow"
K:A Minor
EG |A2  A2      B>d|   e2 e2(ef/g/)|edcB A>d| {c}B4 \
eg |a2  a2      ba |{a}g2 e2(ef/g/)|edcB A>d| {c}B4 \
e>g|a2 (ab/c'/) ba |   g2 e2(ef/g/)|edcB A^G|{^G}A4
e>g|a2  a2      ba |   g2 e2(ef/g/)|edcB A`d| {c}B4 \

